X:4
T:Fairy Dance
M:2/4
L:1/8
S:W.M. Cahusac's Annual Collection of 24 Country Dances for 1809, No 4 (London, 1809)
N:"With proper Directions to each Dance as they are performed at
N:Court, Bath, and all Public Assemblys."
Z:Transcribed and edited by Flynn Titford-Mock, 2007
Z:abc's:AK/Fiddler's Companion
K:G
B2 BG|B2 BG|B2 BG|FDAF|B2 BG|cBAG|FDEF|G4:|
|:d2 dB|e2 ed|c2 cA|d2 dc|B2 BG|E2 cA|FDEF|G2 G2:|
